X: 26813
T: Milliner's Daughter, The
R: reel
M: 4/4
K: Gmajor
dg~g2 dg~g2|df~f2 df~f2|dg~g2 bgag|d^cde fd=cA|
dg~g2 bgag|d^cde ~f3|afge fde^c|d^cde fd=cA||
dg~g2 dg~g2|d=f~=f2 d=f~=f2|dg~g2 bgag|d^cde =fdcA|
dg~g2 bgag|d^cde ~f3|afge fde^c|d^cde fdcA||

